svgs/sharp-solid/location-crosshairs.svg

<svg xmlns="http://www.w3.org/2000/svg" viewBox="0 0 512 512"><!--! Font Awesome Pro 6.6.0 by @fontawesome - https://fontawesome.com License - https://fontawesome.com/license (Commercial License) Copyright 2024 Fonticons, Inc. --><path d="M288 0l0 32 0 34.7C368.4 80.1 431.9 143.6 445.3 224l34.7 0 32 0 0 64-32 0-34.7 0C431.9 368.4 368.4 431.9 288 445.3l0 34.7 0 32-64 0 0-32 0-34.7C143.6 431.9 80.1 368.4 66.7 288L32 288 0 288l0-64 32 0 34.7 0C80.1 143.6 143.6 80.1 224 66.7L224 32l0-32 64 0zM128 256a128 128 0 1 0 256 0 128 128 0 1 0 -256 0zm128-80a80 80 0 1 1 0 160 80 80 0 1 1 0-160z"/></svg>

<svg xmlns="http://www.w3.org/2000/svg" viewBox="0 0 512 512"><!--! Font Awesome Pro 6.4.0 by @fontawesome - https://fontawesome.com License - https://fontawesome.com/license (Commercial License) Copyright 2023 Fonticons, Inc. --><path d="M288 0V32 66.7C368.4 80.1 431.9 143.6 445.3 224H480h32v64H480 445.3C431.9 368.4 368.4 431.9 288 445.3V480v32H224V480 445.3C143.6 431.9 80.1 368.4 66.7 288H32 0V224H32 66.7C80.1 143.6 143.6 80.1 224 66.7V32 0h64zM128 256a128 128 0 1 0 256 0 128 128 0 1 0 -256 0zm128-80a80 80 0 1 1 0 160 80 80 0 1 1 0-160z"/></svg>
